X: 100
T: Darkness Has All Fled
C: Ritter.
Q: "Moderato."
%R: air, waltz
B: "The Everyday Song Book", 1927
F: http://www.library.pitt.edu/happybirthday/pdf/The_Everyday_Song_Book.pdf
Z: 2017 John Chambers <jc:trillian.mit.edu>
M: 3/4
L: 1/4
K: A
% - - - - - - - - - - - - - - - - - - - - - - - - - - - - -
[|\
A2 A | (A G) A | (B A) B | c3 | c2 c |
w: 1.~Dark-ness has* all fled* a-way, We be-
w: 2.~Help us, Lord,* in all* we do,  Al-ways
%
(c d) e | (e d) c | (c B) z | B2 c | (d c) B |
w: hold* this pleas-*ant day;* To Thee, Lord,* we
w: to* be kind* and true;*     In our stud-*y
%
c2 d | e3 | f2 f | (e d) c "^rit."| (d c) B | A2 z |]
w: thanks do give For all things* we do* re-ceive!
w: and our play   Not an an-*gry word* to say!
% - - - - - - - - - - - - - - - - - - - - - - - - - - - - -
